X: 5
T: The Kitchen Girl
R: reel
M: 4/4
L: 1/8
K: Dmaj
A/B/|:=ccBB|A/B/A/G/ E A/B/|=ccBB|^c2cA/B/|=ccBB|A/B/A/G/ E E/F/|GEDB,|A,2A,:|


Tune 603	Setting 13616

